X: 8
T: Maulykevane Jig
B: CRE 5.034 (Port Mholl Ui Chiobhain)
M: 6/8
Q: 320
R: jig
K: A
B |c2A ece |efe ece |~a3 ecA |Bc/d/B BAB |
c2e ece |faf ece |faa ece |1 ABA A2 :|2 ABA A3 ||
|: fef =g2e | fef =g2e | faa ecA | BcB B2f |
fef =g2e | fef =g2e | fg/a/f ece |1  ABA A3 :| [2  ABA A3 ||
F: http://tunepal.org/tunepal/show_tune.php?tunepalid=2502-cre5.abc-16-Maulykevane%7EJig

